packages/admin/admin-icons/icons/loudness-full.svg

<svg xmlns="http://www.w3.org/2000/svg" width="16" height="16" viewBox="0 0 16 16"><path fill="#242424" fill-rule="evenodd" d="M8.99304488,1.91396798 L9,2 L9,14 C9,14.4157556 8.53084485,14.6378031 8.21219845,14.4094692 L8.14644661,14.3535534 L6.43671455,12.6438213 C6.24145241,12.4485592 6.24145241,12.1319767 6.43671455,11.9367146 C6.61028091,11.7631482 6.87970531,11.7438631 7.07457345,11.8788591 L7.14382133,11.9367146 L8,12.793 L8,3.206 L4.85355339,6.35355339 C4.77853884,6.42856794 4.68214268,6.47728504 4.57868937,6.4937713 L4.5,6.5 L2,6.5 L2,9.5 L4.5,9.5 C4.74545989,9.5 4.94960837,9.67687516 4.99194433,9.91012437 L5,10 C5,10.2454599 4.82312484,10.4496084 4.58987563,10.4919443 L4.5,10.5 L1.5,10.5 C1.25454011,10.5 1.05039163,10.3231248 1.00805567,10.0898756 L1,10 L1,6 C1,5.75454011 1.17687516,5.55039163 1.41012437,5.50805567 L1.5,5.5 L4.292,5.5 L8.14644661,1.64644661 C8.44043021,1.35246301 8.92918427,1.52719453 8.99304488,1.91396798 Z M11.2102249,2.09038093 C13.5004974,3.14232035 15,5.4350291 15,8 C15,10.5649709 13.5004974,12.8576796 11.2102249,13.9096191 C10.9592863,14.0248771 10.6624252,13.9148862 10.5471672,13.6639475 C10.4319092,13.4130089 10.5419001,13.1161479 10.7928387,13.0008899 C12.7312336,12.1105705 14,10.1706527 14,8 C14,5.82934734 12.7312336,3.88942952 10.7928387,2.99911015 C10.5419001,2.88385214 10.4319092,2.5869911 10.5471672,2.33605245 C10.6624252,2.08511381 10.9592863,1.97512292 11.2102249,2.09038093 Z M10.717328,5.09444727 C11.7964477,5.6152642 12.4984682,6.74314534 12.4984682,8 C12.4984682,9.25685466 11.7964477,10.3847358 10.717328,10.9055527 C10.4686352,11.0255797 10.1697287,10.9212754 10.0497017,10.6725825 C9.92967478,10.4238896 10.0339791,10.1249832 10.282672,10.0049562 C11.0147803,9.65161782 11.4984682,8.87451446 11.4984682,8 C11.4984682,7.12548554 11.0147803,6.34838218 10.282672,5.99504381 C10.0339791,5.87501685 9.92967478,5.57611038 10.0497017,5.32741751 C10.1697287,5.07872465 10.4686352,4.97442032 10.717328,5.09444727 Z"/></svg>

<svg width="16" height="16" fill="none" viewBox="0 0 16 16">
  <path fill="#242424" d="M8.146 1.647a.5.5 0 0 1 .847.268L9 2.001v12a.5.5 0 0 1-.788.41l-.066-.056-1.71-1.71a.5.5 0 0 1 .639-.765l.069.058.856.856V3.207L4.854 6.355a.5.5 0 0 1-.275.14L4.5 6.5H2v3h2.5a.5.5 0 0 1 .492.41L5 10a.5.5 0 0 1-.41.492l-.09.008h-3a.5.5 0 0 1-.492-.41L1 10V6a.5.5 0 0 1 .41-.492L1.5 5.5h2.792l3.854-3.854Zm2.401.69a.5.5 0 0 1 .663-.246A6.5 6.5 0 0 1 15 8.001a6.5 6.5 0 0 1-3.79 5.91.5.5 0 1 1-.417-.91 5.5 5.5 0 0 0 0-10.002.5.5 0 0 1-.246-.662Z M10.717 5.095a.5.5 0 1 0-.434.901c.732.353 1.216 1.13 1.216 2.005s-.484 1.652-1.216 2.005a.5.5 0 1 0 .434.9c1.08-.52 1.781-1.648 1.781-2.905s-.702-2.385-1.78-2.906Z"/>
</svg>
